X:524
T: FRUEH BEI DEM ERSTEN SONNENSTRAHL
N: E1796
O: Europa, Mitteleuropa, Deutschland
R: Soldaten - Lied
M: 2/4
L: 1/8
K: D
DF | A2A2 | ABAF | D2F2 | F3
F | E2F2 | G2A2 | G2F2 | z3
A | A2F2 | d3c | c3B | B3
B | A3B | AGFE | E2D2 | z2
E2 | E2A2 | A2c2 | cBdc | B2
E2 | E2B2 | B2d2 | dced | c3
A | A2F2 | d3c | c2B2 | z3
B | A3B | AGFE | E2D2 | z2

@@@ Tune index: 5208
